img/cart.svg

<svg width="27" height="25" viewBox="0 0 27 25" fill="none" xmlns="http://www.w3.org/2000/svg">
<path d="M21.5466 23.6478H21.4345C20.8271 23.6478 20.3167 23.1496 20.2727 22.5137C20.2284 21.8468 20.7155 21.2663 21.3588 21.2225C21.3841 21.2208 21.4105 21.2199 21.4365 21.2199C22.0518 21.2199 22.5671 21.7084 22.6128 22.3335C22.6246 22.5812 22.5842 22.9345 22.3294 23.2262L22.3235 23.233L22.3178 23.2398C22.1216 23.4728 21.8555 23.6133 21.5466 23.6478ZM7.85268 23.6415C7.20391 23.6415 6.67615 23.1 6.67615 22.4345C6.67615 21.7695 7.20391 21.2284 7.85268 21.2284C8.50145 21.2284 9.02921 21.7695 9.02921 22.4345C9.02921 23.1 8.50145 23.6415 7.85268 23.6415Z" fill="white"/>
<path d="M21.4703 22.6495C21.5152 22.6382 21.5364 22.6172 21.5541 22.5963C21.5618 22.5871 21.5696 22.578 21.5775 22.569C21.6139 22.5274 21.6172 22.4391 21.6163 22.3944C21.6032 22.2887 21.5126 22.216 21.4356 22.216C21.4319 22.216 21.428 22.2161 21.4257 22.2162C21.3478 22.2216 21.2602 22.3251 21.2668 22.4463C21.2761 22.5628 21.3621 22.6495 21.4336 22.6495H21.4703ZM7.85179 22.6431C7.9507 22.6431 8.0311 22.549 8.0311 22.4334C8.0311 22.3182 7.9507 22.2245 7.85179 22.2245C7.75294 22.2245 7.67248 22.3182 7.67248 22.4334C7.67248 22.549 7.75294 22.6431 7.85179 22.6431ZM21.5934 24.6439C21.5458 24.6439 21.4821 24.6439 21.4336 24.6439C20.2992 24.6439 19.3569 23.7347 19.2769 22.5814C19.1971 21.3797 20.0919 20.3081 21.2901 20.2264C21.3388 20.2231 21.3874 20.2215 21.4356 20.2215C22.5712 20.2215 23.5299 21.1199 23.6074 22.2727C23.6388 22.8741 23.4629 23.4422 23.0796 23.881C22.6964 24.3361 22.1687 24.5955 21.5934 24.6439ZM7.85179 24.6376C6.65091 24.6376 5.67804 23.6513 5.67804 22.4334C5.67804 21.2163 6.65091 20.2301 7.85179 20.2301C9.05261 20.2301 10.0255 21.2163 10.0255 22.4334C10.0255 23.6513 9.05261 24.6376 7.85179 24.6376ZM20.7946 17.7906H8.76277C8.33105 17.7906 7.94784 17.4981 7.8356 17.0763L3.92072 2.68653H1.17258C0.645728 2.68653 0.214069 2.24866 0.214069 1.71195C0.214069 1.17608 0.645728 0.737244 1.17258 0.737244H4.64052C5.07133 0.737244 5.45454 1.02976 5.56671 1.45254L9.48165 15.8413H20.1556L23.7025 7.55906H11.8788C11.3511 7.55906 10.9194 7.12022 10.9194 6.58448C10.9194 6.04862 11.3511 5.60978 11.8788 5.60978H25.1726C25.4922 5.60978 25.7964 5.77217 25.9714 6.04862C26.1473 6.3241 26.1796 6.66519 26.0513 6.9739L21.6733 17.2054C21.5135 17.5627 21.1778 17.7906 20.7946 17.7906Z" fill="white"/>
<path d="M21.4703 22.6495C21.5152 22.6382 21.5364 22.6172 21.5541 22.5963C21.5618 22.5871 21.5696 22.578 21.5775 22.569C21.6139 22.5274 21.6172 22.4391 21.6163 22.3944C21.6032 22.2887 21.5126 22.216 21.4356 22.216C21.4319 22.216 21.428 22.2161 21.4257 22.2162C21.3478 22.2216 21.2602 22.3251 21.2668 22.4463C21.2761 22.5628 21.3621 22.6495 21.4336 22.6495H21.4703ZM7.85179 22.6431C7.9507 22.6431 8.0311 22.549 8.0311 22.4334C8.0311 22.3182 7.9507 22.2245 7.85179 22.2245C7.75294 22.2245 7.67248 22.3182 7.67248 22.4334C7.67248 22.549 7.75294 22.6431 7.85179 22.6431ZM21.5934 24.6439C21.5458 24.6439 21.4821 24.6439 21.4336 24.6439C20.2992 24.6439 19.3569 23.7347 19.2769 22.5814C19.1971 21.3797 20.0919 20.3081 21.2901 20.2264C21.3388 20.2231 21.3874 20.2215 21.4356 20.2215C22.5712 20.2215 23.5299 21.1199 23.6074 22.2727C23.6388 22.8741 23.4629 23.4422 23.0796 23.881C22.6964 24.3361 22.1687 24.5955 21.5934 24.6439ZM7.85179 24.6376C6.65091 24.6376 5.67804 23.6513 5.67804 22.4334C5.67804 21.2163 6.65091 20.2301 7.85179 20.2301C9.05261 20.2301 10.0255 21.2163 10.0255 22.4334C10.0255 23.6513 9.05261 24.6376 7.85179 24.6376ZM20.7946 17.7906H8.76277C8.33105 17.7906 7.94784 17.4981 7.8356 17.0763L3.92072 2.68653H1.17258C0.645728 2.68653 0.214069 2.24866 0.214069 1.71195C0.214069 1.17608 0.645728 0.737244 1.17258 0.737244H4.64052C5.07133 0.737244 5.45454 1.02976 5.56671 1.45254L9.48165 15.8413H20.1556L23.7025 7.55906H11.8788C11.3511 7.55906 10.9194 7.12022 10.9194 6.58448C10.9194 6.04862 11.3511 5.60978 11.8788 5.60978H25.1726C25.4922 5.60978 25.7964 5.77217 25.9714 6.04862C26.1473 6.3241 26.1796 6.66519 26.0513 6.9739L21.6733 17.2054C21.5135 17.5627 21.1778 17.7906 20.7946 17.7906Z" fill="white"/>
</svg>

<svg xmlns="http://www.w3.org/2000/svg" width="27" height="25" fill="none"><path fill="#fff" d="M21.547 23.648h-.113c-.607 0-1.117-.498-1.161-1.134-.045-.667.442-1.248 1.086-1.291a1.193 1.193 0 0 1 1.254 1.111c.012.247-.029.6-.284.892l-.006.007-.005.007a1.155 1.155 0 0 1-.771.408Zm-13.694-.006c-.65 0-1.177-.542-1.177-1.207s.528-1.207 1.177-1.207c.648 0 1.176.541 1.176 1.206 0 .666-.528 1.207-1.176 1.207Z"/><path fill="#fff" d="M21.47 22.65a.147.147 0 0 0 .084-.054l.024-.027c.036-.042.04-.13.038-.175-.013-.105-.103-.178-.18-.178h-.01c-.078.006-.166.11-.16.23.01.117.096.203.168.203h.036Zm-13.618-.007c.099 0 .18-.094.18-.21 0-.115-.081-.209-.18-.209-.1 0-.18.094-.18.21 0 .115.08.21.18.21Zm13.741 2h-.16c-1.134 0-2.076-.908-2.156-2.062-.08-1.201.815-2.273 2.013-2.355.049-.003.097-.005.146-.005 1.135 0 2.094.899 2.171 2.052.032.601-.144 1.17-.527 1.608-.384.455-.911.715-1.487.763Zm-13.741-.005c-1.201 0-2.174-.987-2.174-2.205 0-1.217.973-2.203 2.174-2.203 1.2 0 2.173.986 2.173 2.203 0 1.218-.972 2.205-2.173 2.205Zm12.943-6.847H8.763a.962.962 0 0 1-.927-.715L3.92 2.686H1.173a.97.97 0 0 1-.959-.974.97.97 0 0 1 .959-.975H4.64c.43 0 .814.293.926.716L9.482 15.84h10.674l3.547-8.282H11.879a.97.97 0 0 1-.96-.975.97.97 0 0 1 .96-.974h13.294c.32 0 .623.162.798.439a.997.997 0 0 1 .08.925l-4.378 10.231a.96.96 0 0 1-.878.586Z"/><path fill="#fff" d="M21.47 22.65a.147.147 0 0 0 .084-.054l.024-.027c.036-.042.04-.13.038-.175-.013-.105-.103-.178-.18-.178h-.01c-.078.006-.166.11-.16.23.01.117.096.203.168.203h.036Zm-13.618-.007c.099 0 .18-.094.18-.21 0-.115-.081-.209-.18-.209-.1 0-.18.094-.18.21 0 .115.08.21.18.21Zm13.741 2h-.16c-1.134 0-2.076-.908-2.156-2.062-.08-1.201.815-2.273 2.013-2.355.049-.003.097-.005.146-.005 1.135 0 2.094.899 2.171 2.052.032.601-.144 1.17-.527 1.608-.384.455-.911.715-1.487.763Zm-13.741-.005c-1.201 0-2.174-.987-2.174-2.205 0-1.217.973-2.203 2.174-2.203 1.2 0 2.173.986 2.173 2.203 0 1.218-.972 2.205-2.173 2.205Zm12.943-6.847H8.763a.962.962 0 0 1-.927-.715L3.92 2.686H1.173a.97.97 0 0 1-.959-.974.97.97 0 0 1 .959-.975H4.64c.43 0 .814.293.926.716L9.482 15.84h10.674l3.547-8.282H11.879a.97.97 0 0 1-.96-.975.97.97 0 0 1 .96-.974h13.294c.32 0 .623.162.798.439a.997.997 0 0 1 .08.925l-4.378 10.231a.96.96 0 0 1-.878.586Z"/></svg>
